src/images/crypto-icon-svg/mnx.svg

<svg xmlns="http://www.w3.org/2000/svg" width="32" height="32" viewBox="0 0 32 32">
  <g fill="none" fill-rule="evenodd">
    <circle cx="16" cy="16" r="16" fill="#00ADEF" fill-rule="nonzero"/>
    <path fill="#FFF" d="M14.8627438,26.9857621 C9.32027081,26.4047343 5,21.707954 5,16 C5,10.292046 9.32027081,5.59526571 14.8627438,5.01423795 L14.8627438,8.38388925 C11.1678052,8.94448071 8.33592805,12.1408352 8.33592805,16 C8.33592805,19.8591648 11.1678052,23.0555193 14.8627438,23.6161108 L14.8627438,26.9857621 Z M17.038349,5 C22.2675338,5.4785304 26.4408257,9.6168895 26.9857919,14.8372389 L23.6232066,14.8372389 C23.113787,11.4654548 20.4232628,8.81086217 17.038349,8.36330012 L17.038349,5 Z M27,17.0174159 C26.5180497,22.306129 22.3159719,26.517037 17.038349,27 L17.038349,23.6366999 C20.4717536,23.1827263 23.1907309,20.4580353 23.6437526,17.0174159 L27,17.0174159 Z"/>
  </g>
</svg>

<svg xmlns="http://www.w3.org/2000/svg" width="32" height="32"><g fill="none" fill-rule="evenodd"><circle cx="16" cy="16" r="16" fill="#00ADEF" fill-rule="nonzero"/><path fill="#FFF" d="M14.863 26.986C9.32 26.405 5 21.708 5 16c0-5.708 4.32-10.405 9.863-10.986v3.37A7.7 7.7 0 0 0 8.336 16a7.7 7.7 0 0 0 6.527 7.616v3.37zM17.038 5c5.23.479 9.403 4.617 9.948 9.837h-3.363a7.7 7.7 0 0 0-6.585-6.474V5zM27 17.017c-.482 5.29-4.684 9.5-9.962 9.983v-3.363a7.7 7.7 0 0 0 6.606-6.62H27z"/></g></svg>
